src/assets/icons/tokenTypeTwo.svg

<?xml version="1.0" encoding="iso-8859-1"?>
<!-- Generator: Adobe Illustrator 17.1.0, SVG Export Plug-In . SVG Version: 6.00 Build 0)  -->
<!DOCTYPE svg PUBLIC "-//W3C//DTD SVG 1.1//EN" "http://www.w3.org/Graphics/SVG/1.1/DTD/svg11.dtd">
<svg version="1.1" id="Capa_1" xmlns="http://www.w3.org/2000/svg" xmlns:xlink="http://www.w3.org/1999/xlink" x="0px" y="0px"
	 viewBox="0 0 297 297" style="enable-background:new 0 0 297 297;" xml:space="preserve" fill="#FDF6EB">
<g>
	<path d="M26.287,297h244.426c0-62-23.172-94.793-57.952-110.477l-49.615,37.789l-15.312-24.838L131.52,224.29l-48.128-37.376
		C49.083,202.752,26.287,236,26.287,297z M208.466,228l4.701-14.47l4.701,14.47h15.215l-12.309,8.957l4.701,14.477l-12.309-8.939
		l-12.309,8.945l4.701-14.483L193.252,228H208.466z"/>
	<path d="M147.833,199.46l40.914-20.81c-0.024-0.006-0.05-0.012-0.075-0.018c23.667-13.832,39.578-39.492,39.578-68.883
		c0-7.141-0.952-14.055-2.712-20.641C209.797,97.037,181.366,108.5,148.5,108.5c-32.866,0-61.297-11.463-77.038-19.391
		c-1.76,6.586-2.712,13.5-2.712,20.641c0,29.369,15.888,55.014,39.526,68.854L147.833,199.46z"/>
	<path d="M148.5,41.667c38.339,0,70.666,15.604,83.821,22.991C232.071,52.307,218.314,38.78,202.333,25
		c-13.681-11.796-31-25-53.833-25s-40.152,13.204-53.833,25C78.686,38.78,64.929,52.307,64.679,64.658
		C77.834,57.271,110.161,41.667,148.5,41.667z M149,14.001c4.418,0,8,3.582,8,8c0,4.418-3.582,8-8,8s-8-3.582-8-8
		C141,17.583,144.582,14.001,149,14.001z"/>
	<path d="M217.728,75.095c-14.38-7.129-40.182-17.428-69.227-17.428c-29.141,0-54.881,10.277-69.228,17.405
		C93.652,82.201,119.454,92.5,148.5,92.5C177.641,92.5,203.381,82.224,217.728,75.095z"/>
</g>
</svg>

<?xml version="1.0" encoding="UTF-8" standalone="no"?>
<!DOCTYPE svg PUBLIC "-//W3C//DTD SVG 1.1//EN" "http://www.w3.org/Graphics/SVG/1.1/DTD/svg11.dtd">
<svg width="100%" height="100%" viewBox="0 0 297 297" version="1.1" xmlns="http://www.w3.org/2000/svg" xmlns:xlink="http://www.w3.org/1999/xlink" xml:space="preserve" xmlns:serif="http://www.serif.com/" style="fill-rule:evenodd;clip-rule:evenodd;stroke-linejoin:round;stroke-miterlimit:1.41421;">
    <g>
        <path d="M26.287,297L270.713,297C270.713,235 247.541,202.207 212.761,186.523L163.146,224.312L147.834,199.474L131.52,224.29L83.392,186.914C49.083,202.752 26.287,236 26.287,297ZM208.466,228L213.167,213.53L217.868,228L233.083,228L220.774,236.957L225.475,251.434L213.166,242.495L200.857,251.44L205.558,236.957L193.252,228L208.466,228Z" style="fill:rgb(251,227,194);fill-rule:nonzero;"/>
        <path d="M147.833,199.46L188.747,178.65C188.723,178.644 188.697,178.638 188.672,178.632C212.339,164.8 228.25,139.14 228.25,109.749C228.25,102.608 227.298,95.694 225.538,89.108C209.797,97.037 181.366,108.5 148.5,108.5C115.634,108.5 87.203,97.037 71.462,89.109C69.702,95.695 68.75,102.609 68.75,109.75C68.75,139.119 84.638,164.764 108.276,178.604L147.833,199.46Z" style="fill:rgb(251,227,194);fill-rule:nonzero;"/>
        <path d="M148.5,41.667C186.839,41.667 219.166,57.271 232.321,64.658C232.071,52.307 218.314,38.78 202.333,25C188.652,13.204 171.333,0 148.5,0C125.667,0 108.348,13.204 94.667,25C78.686,38.78 64.929,52.307 64.679,64.658C77.834,57.271 110.161,41.667 148.5,41.667ZM149,14.001C153.418,14.001 157,17.583 157,22.001C157,26.419 153.418,30.001 149,30.001C144.582,30.001 141,26.419 141,22.001C141,17.583 144.582,14.001 149,14.001Z" style="fill:rgb(251,227,194);fill-rule:nonzero;"/>
        <path d="M217.728,75.095C203.348,67.966 177.546,57.667 148.501,57.667C119.36,57.667 93.62,67.944 79.273,75.072C93.652,82.201 119.454,92.5 148.5,92.5C177.641,92.5 203.381,82.224 217.728,75.095Z" style="fill:rgb(251,227,194);fill-rule:nonzero;"/>
    </g>
</svg>
